src/objects/tool/1F3F9.svg

<svg id="emoji" viewBox="0 0 72 72" xmlns="http://www.w3.org/2000/svg">
  <g id="grid">
    <path fill="#b3b3b3" d="M68,4V68H4V4H68m4-4H0V72H72V0Z"/>
    <path fill="none" stroke="#00a5ff" stroke-miterlimit="10" stroke-width="0.1" d="M12.923,10.9583H59.0769A1.9231,1.9231,0,0,1,61,12.8814V59.0352a1.9231,1.9231,0,0,1-1.9231,1.9231H12.9231A1.9231,1.9231,0,0,1,11,59.0352V12.8813A1.923,1.923,0,0,1,12.923,10.9583Z"/>
    <rect x="16" y="4" rx="2.2537" width="40" height="64" fill="none" stroke="#00a5ff" stroke-miterlimit="10" stroke-width="0.1"/>
    <rect x="16" y="4" rx="2.2537" width="40" height="64" transform="translate(72) rotate(90)" fill="none" stroke="#00a5ff" stroke-miterlimit="10" stroke-width="0.1"/>
    <circle cx="36" cy="36" r="29" fill="none" stroke="#00a5ff" stroke-miterlimit="10" stroke-width="0.1"/>
  </g>
  <g id="color">
    <g id="_1F3F9">
      <path fill="none" stroke="#a57939" stroke-linecap="round" stroke-linejoin="round" stroke-width="2.8" d="M51.88,55.5863A27.0167,27.0167,0,0,0,16.3837,20.09"/>
      <path fill="#d22f27" d="M31.1285,40.8418l-7.098,7.098v6.8521a.6024.6024,0,0,0,1.0283.4259l5.8933-5.8933a.6027.6027,0,0,0,.1764-.4259Z"/>
      <path fill="#ea5a47" d="M31.1285,40.8418l-7.098,7.098H17.1784a.6024.6024,0,0,1-.4259-1.0283l5.8933-5.8933a.6027.6027,0,0,1,.4259-.1764Z"/>
    </g>
  </g>
  <g id="line">
    <g>
      <line x1="19.2278" x2="50.4542" y1="21.5167" y2="52.7424" fill="none" stroke="#000" stroke-linecap="round" stroke-linejoin="round" stroke-width="2"/>
      <path fill="none" stroke="#000" stroke-miterlimit="10" stroke-width="2" d="M50.2183,57.2486a2.3515,2.3515,0,0,1-.4964-2.5908,24.6677,24.6677,0,0,0-32.41-32.41,2.3493,2.3493,0,0,1-1.8567-4.3162A29.3663,29.3663,0,0,1,54.0381,56.5145a2.3526,2.3526,0,0,1-3.82.7341Z"/>
      <line x1="57.966" x2="22.1582" y1="14.0638" y2="49.8716" fill="none" stroke="#000" stroke-linecap="round" stroke-linejoin="round" stroke-width="2"/>
      <polyline fill="none" stroke="#000" stroke-linecap="round" stroke-linejoin="round" stroke-width="2" points="52.596 14.064 57.966 14.064 57.966 19.153"/>
    </g>
  </g>
</svg>

<svg viewBox="0 0 72 72" xmlns="http://www.w3.org/2000/svg"><path fill="#b3b3b3" d="M68 4v64H4V4h64m4-4H0v72h72V0z"/><path fill="none" stroke="#00a5ff" stroke-miterlimit="10" stroke-width=".1" d="M12.923 10.958h46.154A1.923 1.923 0 0161 12.881v46.154a1.923 1.923 0 01-1.923 1.923H12.923A1.923 1.923 0 0111 59.035V12.881a1.923 1.923 0 011.923-1.923z"/><rect x="16" y="4" rx="2.254" width="40" height="64" fill="none" stroke="#00a5ff" stroke-miterlimit="10" stroke-width=".1"/><rect x="16" y="4" rx="2.254" width="40" height="64" transform="rotate(90 36 36)" fill="none" stroke="#00a5ff" stroke-miterlimit="10" stroke-width=".1"/><circle cx="36" cy="36" r="29" fill="none" stroke="#00a5ff" stroke-miterlimit="10" stroke-width=".1"/><path d="M19.228 21.517l31.226 31.225m-.236 4.507a2.352 2.352 0 01-.496-2.591 24.668 24.668 0 00-32.41-32.41 2.35 2.35 0 01-1.857-4.316 29.366 29.366 0 0138.583 38.582 2.353 2.353 0 01-3.82.735zm7.748-43.185L22.158 49.872m30.438-35.808h5.37v5.089" stroke-linecap="round" stroke-miterlimit="10" stroke-width="6" stroke="#fff" fill="none" stroke-linejoin="round"/><path fill="none" stroke="#a57939" stroke-linecap="round" stroke-linejoin="round" stroke-width="2.8" d="M51.88 55.586A27.017 27.017 0 0016.384 20.09"/><path fill="#d22f27" d="M31.128 40.842L24.03 47.94v6.852a.602.602 0 001.029.426l5.893-5.894a.603.603 0 00.176-.425z"/><path fill="#ea5a47" d="M31.128 40.842L24.03 47.94h-6.852a.602.602 0 01-.426-1.028l5.894-5.894a.603.603 0 01.426-.176z"/><g><g fill="none" stroke="#000" stroke-width="2"><path stroke-linecap="round" stroke-linejoin="round" d="M19.228 21.517l31.226 31.225"/><path stroke-miterlimit="10" d="M50.218 57.249a2.352 2.352 0 01-.496-2.591 24.668 24.668 0 00-32.41-32.41 2.35 2.35 0 01-1.857-4.316 29.366 29.366 0 0138.583 38.582 2.353 2.353 0 01-3.82.735z"/><path stroke-linecap="round" stroke-linejoin="round" d="M57.966 14.064L22.158 49.872m30.438-35.808h5.37v5.089"/></g></g></svg>
